X: 1089
T: Ambrose Moloney's
R: reel
M: 4/4
K: Gmajor
~B3 G ABGE|DGBG A3 c|B ~G3 Adef|gedg eAAc|
~B3 G ABGE|DGBG AGAc|B ~G3 Adef|1 gedc BGGA:|2 gedc BGGB||
dgbg agea|gedB GABd|e ~a3 agef|~g2 bg afge|
dgbg agea|gedB GABd|eaag egfa|1 gedc BGGB:|2 gedc BGGA:|

